X:1
T:Title
%%score { ( 1 4 5 ) | ( 2 3 ) }
L:1/8
Q:1/4=108
M:4/4
K:Bb
V:1 treble nm="Grand Piano"
V:4 treble 
V:5 treble 
V:2 bass 
V:3 bass 
V:1
 [DF]2 [DB]2 [DB]2 .[DFB]2 | B3 G A4 | A2 c2 G2 A2 | [DB]6 z2 | [DF]2 [DB]2 [DB]2 .[DFB]2 | %5
w: Chas.~H.~Gabriel * * *|||||
 [C=EB]4 [CFA]4 | [CFA]2 [CFc]2 [DFG]2 [C=EA]2 | F6 z2 | F2 e2 =B2 c2 | [Fd]3 [Ec] [DB]4 | %10
w: |||||
 F2 e2 =B2 c2 | d6 z2 | [^Fd]2 A2 B2 G2 | c3 A [CF]4 | [DFG]2 [DFB]2 [G,C=E]2 [Ec]2 | %15
w: |||||
 F6[K:bass] z2 | [Fd]2 [Fd]2 [Fd]2 .[DFB]2 | [CEB]4 [CEA]4 | [Ge]2 [Ge]2 [EG]2 [EA]2 | %19
w: ||||
 [DB]6[K:bass] z2 | [B,DF]2 [DB]2 [Fd]2 [_Af]2 | [Gf]4 [Ge]4 | d2 e2 z2 z c | [DB]8 |] %24
w: |||||
V:2
 [B,,B,]2 [B,,F,]2 [B,,F,]2 z[K:treble] c | C,4 [F,CE]4 | [F,CE]2 [F,A,E]2 [F,CE]2 [F,CE]2 | %3
 [B,,B,]6 z2 | [B,,B,]2 [B,,F,]2 [B,,F,]2 z[K:treble] c | z2 z G F,4 | F,2 A,,2 B,,2 C,2 | %7
 [F,A,]6 z2 | [F,A,]2 [F,CF]2 [F,_A,F]2 [F,=A,F]2 | [B,,B,]4 [B,,F,]4 | %10
 [F,A,]2[K:treble] [F,CF]2 [F,_A,F]2 [F,=A,F]2 | [B,F]6 z2 | %12
 [D,A,]2 [^F,D]2[K:treble] [G,DG]2 [B,D^F]2 | A,4[K:bass] z4 | B,,2 G,,2 C,2 [C,B,]2 | [F,A,]6 z2 | %16
 [B,,B,]2 [F,,B,]2 [B,,B,]2 z[K:treble] c | C,2 z G C,2 F,,2 | [F,A,]2 [F,A,]2 [F,C]2 [F,C]2 | %19
 [B,,B,]2 z2 F,,2 D,,2 | B,,2 [B,,F,B,]2 [B,,B,]2 [D,B,]2 | [E,B,]4 [E,B,]4 | %22
 [F,B,F]2 [F,CF]2 [F,A,E]2 [F,A,]2 | [B,,B,]8 |] %24
V:3
 z4 z2 B,,2[K:treble] | x8 | x8 | x8 | z4 z2 B,,2[K:treble] | C,4 z4 | x8 | x8 | x8 | x8 | %10
 x2[K:treble] x6 | x8 | x4[K:treble] x4 | [CF]3- [F,CF][K:bass] A,,4 | x8 | x8 | %16
 z4 z2 F,,2[K:treble] | z2 F,,2 z4 | x8 | z2 B,,4 z2 | x8 | x8 | x8 | x8 |] %24
V:4
 x8 | [CE]4 z4 | x8 | x8 | x8 | x8 | x8 | x8 | x8 | x8 | x8 | x8 | x8 | x8 | x8 | %15
 z2[K:bass] E,2 D,2 C,2 | x8 | x8 | x8 | z2[K:bass] B,4 z2 | x8 | x8 | z4 c4 | x8 |] %24
V:5
 x8 | x8 | x8 | x8 | x8 | x8 | x8 | x8 | x8 | x8 | x8 | x8 | x8 | x8 | x8 | x2[K:bass] x6 | x8 | %17
 x8 | x8 | z4[K:bass] F,2 D,2 | x8 | x8 | z4 z2 E2 | x8 |] %24

